images/6710718.svg

<?xml version="1.0" encoding="UTF-8"?>
<svg xmlns="http://www.w3.org/2000/svg" xmlns:xlink="http://www.w3.org/1999/xlink" width="300pt" height="300pt" viewBox="0 0 300 300" version="1.1">
<defs>
<g>
<symbol overflow="visible" id="glyph0-0">
<path style="stroke:none;" d="M 0.640625 2.296875 L 0.640625 -9.171875 L 7.140625 -9.171875 L 7.140625 2.296875 Z M 1.375 1.578125 L 6.421875 1.578125 L 6.421875 -8.4375 L 1.375 -8.4375 Z M 1.375 1.578125 "/>
</symbol>
<symbol overflow="visible" id="glyph0-1">
<path style="stroke:none;" d="M 5.125 -8.609375 C 4.1875 -8.609375 3.441406 -8.257812 2.890625 -7.5625 C 2.347656 -6.875 2.078125 -5.929688 2.078125 -4.734375 C 2.078125 -3.535156 2.347656 -2.585938 2.890625 -1.890625 C 3.441406 -1.203125 4.1875 -0.859375 5.125 -0.859375 C 6.050781 -0.859375 6.785156 -1.203125 7.328125 -1.890625 C 7.878906 -2.585938 8.15625 -3.535156 8.15625 -4.734375 C 8.15625 -5.929688 7.878906 -6.875 7.328125 -7.5625 C 6.785156 -8.257812 6.050781 -8.609375 5.125 -8.609375 Z M 5.125 -9.65625 C 6.445312 -9.65625 7.503906 -9.207031 8.296875 -8.3125 C 9.097656 -7.414062 9.5 -6.222656 9.5 -4.734375 C 9.5 -3.234375 9.097656 -2.035156 8.296875 -1.140625 C 7.503906 -0.253906 6.445312 0.1875 5.125 0.1875 C 3.789062 0.1875 2.722656 -0.253906 1.921875 -1.140625 C 1.128906 -2.035156 0.734375 -3.234375 0.734375 -4.734375 C 0.734375 -6.222656 1.128906 -7.414062 1.921875 -8.3125 C 2.722656 -9.207031 3.789062 -9.65625 5.125 -9.65625 Z M 5.125 -9.65625 "/>
</symbol>
</g>
</defs>
<g id="surface44473">
<rect x="0" y="0" width="300" height="300" style="fill:rgb(100%,100%,100%);fill-opacity:1;stroke:none;"/>
<path style="fill:none;stroke-width:1.2;stroke-linecap:butt;stroke-linejoin:miter;stroke:rgb(0%,0%,0%);stroke-opacity:1;stroke-miterlimit:10;" d="M 35.25 155.675781 L 48.320312 165.574219 "/>
<path style="fill:none;stroke-width:1.2;stroke-linecap:butt;stroke-linejoin:miter;stroke:rgb(100%,0%,0%);stroke-opacity:1;stroke-miterlimit:10;" d="M 48.320312 165.574219 L 61.390625 175.476562 "/>
<path style="fill:none;stroke-width:1.2;stroke-linecap:butt;stroke-linejoin:miter;stroke:rgb(100%,0%,0%);stroke-opacity:1;stroke-miterlimit:10;" d="M 61.390625 175.476562 L 76.496094 169.105469 "/>
<path style="fill:none;stroke-width:1.2;stroke-linecap:butt;stroke-linejoin:miter;stroke:rgb(0%,0%,0%);stroke-opacity:1;stroke-miterlimit:10;" d="M 76.496094 169.105469 L 91.605469 162.738281 "/>
<path style=" stroke:none;fill-rule:nonzero;fill:rgb(100%,100%,100%);fill-opacity:1;" d="M 56.390625 167.476562 L 67.390625 167.476562 L 67.390625 183.476562 L 56.390625 183.476562 Z M 56.390625 167.476562 "/>
<g style="fill:rgb(100%,0%,0%);fill-opacity:1;">
  <use xlink:href="#glyph0-1" x="56.390625" y="179.852539"/>
</g>
<path style="fill:none;stroke-width:1.2;stroke-linecap:butt;stroke-linejoin:miter;stroke:rgb(0%,0%,0%);stroke-opacity:1;stroke-miterlimit:10;" d="M 91.605469 162.738281 L 95.683594 130.199219 "/>
<path style="fill:none;stroke-width:1.2;stroke-linecap:butt;stroke-linejoin:miter;stroke:rgb(0%,0%,0%);stroke-opacity:1;stroke-miterlimit:10;" d="M 99.667969 160.441406 L 102.929688 134.414062 "/>
<path style="fill:none;stroke-width:1.2;stroke-linecap:butt;stroke-linejoin:miter;stroke:rgb(0%,0%,0%);stroke-opacity:1;stroke-miterlimit:10;" d="M 117.746094 182.535156 L 91.605469 162.738281 "/>
<path style="fill:none;stroke-width:1.2;stroke-linecap:butt;stroke-linejoin:miter;stroke:rgb(0%,0%,0%);stroke-opacity:1;stroke-miterlimit:10;" d="M 95.683594 130.199219 L 125.898438 117.464844 "/>
<path style="fill:none;stroke-width:1.2;stroke-linecap:butt;stroke-linejoin:miter;stroke:rgb(0%,0%,0%);stroke-opacity:1;stroke-miterlimit:10;" d="M 129.726562 117.941406 L 131.765625 101.675781 "/>
<path style="fill:none;stroke-width:1.2;stroke-linecap:butt;stroke-linejoin:miter;stroke:rgb(100%,0%,0%);stroke-opacity:1;stroke-miterlimit:10;" d="M 131.765625 101.675781 L 133.804688 85.40625 "/>
<path style="fill:none;stroke-width:1.2;stroke-linecap:butt;stroke-linejoin:miter;stroke:rgb(0%,0%,0%);stroke-opacity:1;stroke-miterlimit:10;" d="M 122.070312 116.984375 L 124.109375 100.714844 "/>
<path style="fill:none;stroke-width:1.2;stroke-linecap:butt;stroke-linejoin:miter;stroke:rgb(100%,0%,0%);stroke-opacity:1;stroke-miterlimit:10;" d="M 124.109375 100.714844 L 126.148438 84.445312 "/>
<path style="fill:none;stroke-width:1.2;stroke-linecap:butt;stroke-linejoin:miter;stroke:rgb(0%,0%,0%);stroke-opacity:1;stroke-miterlimit:10;" d="M 125.898438 117.464844 L 152.039062 137.261719 "/>
<path style=" stroke:none;fill-rule:nonzero;fill:rgb(100%,100%,100%);fill-opacity:1;" d="M 124.976562 76.925781 L 135.976562 76.925781 L 135.976562 92.925781 L 124.976562 92.925781 Z M 124.976562 76.925781 "/>
<g style="fill:rgb(100%,0%,0%);fill-opacity:1;">
  <use xlink:href="#glyph0-1" x="124.976562" y="89.301758"/>
</g>
<path style="fill:none;stroke-width:1.2;stroke-linecap:butt;stroke-linejoin:miter;stroke:rgb(0%,0%,0%);stroke-opacity:1;stroke-miterlimit:10;" d="M 152.039062 137.261719 L 147.960938 169.800781 "/>
<path style="fill:none;stroke-width:1.2;stroke-linecap:butt;stroke-linejoin:miter;stroke:rgb(0%,0%,0%);stroke-opacity:1;stroke-miterlimit:10;" d="M 143.976562 139.558594 L 140.714844 165.585938 "/>
<path style="fill:none;stroke-width:1.2;stroke-linecap:butt;stroke-linejoin:miter;stroke:rgb(0%,0%,0%);stroke-opacity:1;stroke-miterlimit:10;" d="M 152.039062 137.261719 L 182.253906 124.523438 "/>
<path style="fill:none;stroke-width:1.2;stroke-linecap:butt;stroke-linejoin:miter;stroke:rgb(0%,0%,0%);stroke-opacity:1;stroke-miterlimit:10;" d="M 147.960938 169.800781 L 117.746094 182.535156 "/>
<path style="fill:none;stroke-width:1.2;stroke-linecap:butt;stroke-linejoin:miter;stroke:rgb(0%,0%,0%);stroke-opacity:1;stroke-miterlimit:10;" d="M 113.917969 182.058594 L 111.878906 198.324219 "/>
<path style="fill:none;stroke-width:1.2;stroke-linecap:butt;stroke-linejoin:miter;stroke:rgb(100%,0%,0%);stroke-opacity:1;stroke-miterlimit:10;" d="M 111.878906 198.324219 L 109.839844 214.59375 "/>
<path style="fill:none;stroke-width:1.2;stroke-linecap:butt;stroke-linejoin:miter;stroke:rgb(0%,0%,0%);stroke-opacity:1;stroke-miterlimit:10;" d="M 121.574219 183.015625 L 119.535156 199.285156 "/>
<path style="fill:none;stroke-width:1.2;stroke-linecap:butt;stroke-linejoin:miter;stroke:rgb(100%,0%,0%);stroke-opacity:1;stroke-miterlimit:10;" d="M 119.535156 199.285156 L 117.496094 215.554688 "/>
<path style=" stroke:none;fill-rule:nonzero;fill:rgb(100%,100%,100%);fill-opacity:1;" d="M 108.667969 207.074219 L 119.667969 207.074219 L 119.667969 223.074219 L 108.667969 223.074219 Z M 108.667969 207.074219 "/>
<g style="fill:rgb(100%,0%,0%);fill-opacity:1;">
  <use xlink:href="#glyph0-1" x="108.667969" y="219.450195"/>
</g>
<path style="fill:none;stroke-width:1.2;stroke-linecap:butt;stroke-linejoin:miter;stroke:rgb(0%,0%,0%);stroke-opacity:1;stroke-miterlimit:10;" d="M 186.082031 125.003906 L 188.121094 108.738281 "/>
<path style="fill:none;stroke-width:1.2;stroke-linecap:butt;stroke-linejoin:miter;stroke:rgb(100%,0%,0%);stroke-opacity:1;stroke-miterlimit:10;" d="M 188.121094 108.738281 L 190.160156 92.46875 "/>
<path style="fill:none;stroke-width:1.2;stroke-linecap:butt;stroke-linejoin:miter;stroke:rgb(0%,0%,0%);stroke-opacity:1;stroke-miterlimit:10;" d="M 178.425781 124.046875 L 180.464844 107.777344 "/>
<path style="fill:none;stroke-width:1.2;stroke-linecap:butt;stroke-linejoin:miter;stroke:rgb(100%,0%,0%);stroke-opacity:1;stroke-miterlimit:10;" d="M 180.464844 107.777344 L 182.503906 91.507812 "/>
<path style="fill:none;stroke-width:1.2;stroke-linecap:butt;stroke-linejoin:miter;stroke:rgb(0%,0%,0%);stroke-opacity:1;stroke-miterlimit:10;" d="M 182.253906 124.523438 L 208.394531 144.324219 "/>
<path style=" stroke:none;fill-rule:nonzero;fill:rgb(100%,100%,100%);fill-opacity:1;" d="M 181.332031 83.988281 L 192.332031 83.988281 L 192.332031 99.988281 L 181.332031 99.988281 Z M 181.332031 83.988281 "/>
<g style="fill:rgb(100%,0%,0%);fill-opacity:1;">
  <use xlink:href="#glyph0-1" x="181.332031" y="96.364258"/>
</g>
<path style="fill:none;stroke-width:1.2;stroke-linecap:butt;stroke-linejoin:miter;stroke:rgb(0%,0%,0%);stroke-opacity:1;stroke-miterlimit:10;" d="M 208.394531 144.324219 L 204.316406 176.863281 "/>
<path style="fill:none;stroke-width:1.2;stroke-linecap:butt;stroke-linejoin:miter;stroke:rgb(0%,0%,0%);stroke-opacity:1;stroke-miterlimit:10;" d="M 215.640625 148.539062 L 212.378906 174.566406 "/>
<path style="fill:none;stroke-width:1.2;stroke-linecap:butt;stroke-linejoin:miter;stroke:rgb(0%,0%,0%);stroke-opacity:1;stroke-miterlimit:10;" d="M 238.609375 131.585938 L 208.394531 144.324219 "/>
<path style="fill:none;stroke-width:1.2;stroke-linecap:butt;stroke-linejoin:miter;stroke:rgb(0%,0%,0%);stroke-opacity:1;stroke-miterlimit:10;" d="M 204.316406 176.863281 L 230.457031 196.660156 "/>
<path style="fill:none;stroke-width:1.2;stroke-linecap:butt;stroke-linejoin:miter;stroke:rgb(0%,0%,0%);stroke-opacity:1;stroke-miterlimit:10;" d="M 230.457031 196.660156 L 260.671875 183.925781 "/>
<path style="fill:none;stroke-width:1.2;stroke-linecap:butt;stroke-linejoin:miter;stroke:rgb(0%,0%,0%);stroke-opacity:1;stroke-miterlimit:10;" d="M 230.480469 188.277344 L 254.652344 178.089844 "/>
<path style="fill:none;stroke-width:1.2;stroke-linecap:butt;stroke-linejoin:miter;stroke:rgb(0%,0%,0%);stroke-opacity:1;stroke-miterlimit:10;" d="M 260.671875 183.925781 L 264.75 151.386719 "/>
<path style="fill:none;stroke-width:1.2;stroke-linecap:butt;stroke-linejoin:miter;stroke:rgb(0%,0%,0%);stroke-opacity:1;stroke-miterlimit:10;" d="M 264.75 151.386719 L 238.609375 131.585938 "/>
<path style="fill:none;stroke-width:1.2;stroke-linecap:butt;stroke-linejoin:miter;stroke:rgb(0%,0%,0%);stroke-opacity:1;stroke-miterlimit:10;" d="M 257.476562 155.558594 L 236.566406 139.71875 "/>
</g>
</svg>

<svg xmlns="http://www.w3.org/2000/svg" xmlns:xlink="http://www.w3.org/1999/xlink" width="300pt" height="300pt" viewBox="0 0 300 300"><defs><symbol overflow="visible"><path d="M.64 2.297v-11.47h6.5v11.47zm.735-.72h5.047V-8.436H1.375zm0 0"/></symbol><symbol overflow="visible" id="a"><path d="M5.125-8.61c-.938 0-1.684.352-2.234 1.047-.542.688-.812 1.633-.812 2.83 0 1.198.27 2.147.813 2.842.55.687 1.297 1.03 2.235 1.03.926 0 1.66-.343 2.203-1.03.55-.696.828-1.645.828-2.844 0-1.196-.277-2.14-.828-2.829-.543-.695-1.277-1.046-2.203-1.046zm0-1.046c1.32 0 2.38.45 3.172 1.344.8.898 1.203 2.09 1.203 3.578 0 1.5-.402 2.7-1.203 3.593C7.504-.255 6.445.186 5.125.186c-1.336 0-2.402-.44-3.203-1.328C1.13-2.036.734-3.235.734-4.735c0-1.49.395-2.68 1.188-3.579.8-.894 1.867-1.343 3.203-1.343zm0 0"/></symbol></defs><g><path fill="#fff" d="M0 0h300v300H0z"/><path d="M35.25 155.676l13.07 9.898" stroke-width="1.2" stroke="#000" stroke-miterlimit="10" fill="none"/><path d="M48.32 165.574l13.07 9.903M61.39 175.477l15.106-6.372" stroke-width="1.2" stroke="#f00" stroke-miterlimit="10" fill="none"/><path d="M76.496 169.105l15.11-6.367" stroke-width="1.2" stroke="#000" stroke-miterlimit="10" fill="none"/><path d="M56.39 167.477h11v16h-11zm0 0" fill="#fff"/><use xlink:href="#a" x="56.391" y="179.853" fill="#f00"/><path d="M91.605 162.738l4.08-32.54M99.668 160.44l3.262-26.026M117.746 182.535l-26.14-19.797M95.684 130.2l30.214-12.735M129.727 117.94l2.04-16.264" stroke-width="1.2" stroke="#000" stroke-miterlimit="10" fill="none"/><path d="M131.766 101.676l2.04-16.27" stroke-width="1.2" stroke="#f00" stroke-miterlimit="10" fill="none"/><path d="M122.07 116.984l2.04-16.27" stroke-width="1.2" stroke="#000" stroke-miterlimit="10" fill="none"/><path d="M124.11 100.715l2.038-16.27" stroke-width="1.2" stroke="#f00" stroke-miterlimit="10" fill="none"/><path d="M125.898 117.465l26.14 19.797" stroke-width="1.2" stroke="#000" stroke-miterlimit="10" fill="none"/><path d="M124.977 76.926h11v16h-11zm0 0" fill="#fff"/><use xlink:href="#a" x="124.977" y="89.302" fill="#f00"/><path d="M152.04 137.262l-4.08 32.54M143.977 139.56l-3.262 26.026M152.04 137.262l30.214-12.74M147.96 169.8l-30.214 12.735M113.918 182.06l-2.04 16.264" stroke-width="1.2" stroke="#000" stroke-miterlimit="10" fill="none"/><path d="M111.88 198.324l-2.04 16.27" stroke-width="1.2" stroke="#f00" stroke-miterlimit="10" fill="none"/><path d="M121.574 183.016l-2.04 16.27" stroke-width="1.2" stroke="#000" stroke-miterlimit="10" fill="none"/><path d="M119.535 199.285l-2.04 16.27" stroke-width="1.2" stroke="#f00" stroke-miterlimit="10" fill="none"/><path d="M108.668 207.074h11v16h-11zm0 0" fill="#fff"/><use xlink:href="#a" x="108.668" y="219.45" fill="#f00"/><path d="M186.082 125.004l2.04-16.266" stroke-width="1.2" stroke="#000" stroke-miterlimit="10" fill="none"/><path d="M188.12 108.738l2.04-16.27" stroke-width="1.2" stroke="#f00" stroke-miterlimit="10" fill="none"/><path d="M178.426 124.047l2.04-16.27" stroke-width="1.2" stroke="#000" stroke-miterlimit="10" fill="none"/><path d="M180.465 107.777l2.04-16.27" stroke-width="1.2" stroke="#f00" stroke-miterlimit="10" fill="none"/><path d="M182.254 124.523l26.14 19.8" stroke-width="1.2" stroke="#000" stroke-miterlimit="10" fill="none"/><path d="M181.332 83.988h11v16h-11zm0 0" fill="#fff"/><use xlink:href="#a" x="181.332" y="96.364" fill="#f00"/><path d="M208.395 144.324l-4.08 32.54M215.64 148.54l-3.26 26.026M238.61 131.586l-30.215 12.738M204.316 176.863l26.14 19.797M230.457 196.66l30.215-12.734M230.48 188.277l24.172-10.187M260.672 183.926l4.078-32.54M264.75 151.387l-26.14-19.8M257.477 155.56l-20.91-15.84" stroke-width="1.2" stroke="#000" stroke-miterlimit="10" fill="none"/></g></svg>
